build/img/icons/list.svg

<svg width="16" height="13" viewBox="0 0 16 13" fill="none" xmlns="http://www.w3.org/2000/svg">
<path d="M0 0.5H2V2.5H0V0.5ZM0 5.5H2V7.5H0V5.5ZM0 10.5H2V12.5H0V10.5ZM16 2.5V0.5H4.023V2.5H14.8H16ZM4 5.5H16V7.5H4V5.5ZM4 10.5H16V12.5H4V10.5Z" fill="#5CC773"/>
</svg>

<svg width="16" height="13" fill="none" xmlns="http://www.w3.org/2000/svg">
    <path d="M0 .5h2v2H0v-2zm0 5h2v2H0v-2zm0 5h2v2H0v-2zm16-8v-2H4.023v2H16zm-12 3h12v2H4v-2zm0 5h12v2H4v-2z" fill="#5CC773"/>
</svg>
